Simply-Blue-Circles/symbolic/categories/applications-graphics-symbolic.svg

<svg xmlns="http://www.w3.org/2000/svg" width="24" height="24" viewBox="0 0 6.35 6.35"><path d="M3.15.906c-.622.009-1.455.236-1.441.965.014.761.858.489.926.8.01-.014.026-.025.037-.037.058-.063.116-.114.174-.175.092-.103.188-.2.285-.303.325-.347.34-.368 1.116-.956a2.1 2.1 0 0 0-.97-.294c-.039-.002-.086 0-.128 0zm1.806 0c-.529.383-1.237.972-1.798 1.569-.051.055-.1.106-.148.16-.03.033-.063.058-.093.091-.02.023-.037.048-.056.07-.383.424-.758.922-1.072 1.38a.315.315 0 0 0-.33.028c-.222.146-.175.672-.631.672.043.177.51.175.826.096.298-.075.388-.336.332-.554-.008-.03-.027-.062-.046-.092.584-.484 1-.888 1.283-1.187.07-.073.156-.168.25-.272.354-.393.86-1.011 1.483-1.96zm-2.373.45a.441.441 0 0 1 .006 0 .44.44 0 0 1 .44.441.441.441 0 1 1-.446-.441zm2.145.195c-.418.657-.697 1.046-.992 1.35-.188.193-.342.386-.477.523-.247.263-.57.572-.927.91.019.433.239.808.955.947 1.146.222 2.361-.537 2.239-2.077-.053-.661-.414-1.26-.798-1.653zm.1 1.12a.294.294 0 0 1 0 .588.294.294 0 0 1 0-.589zm-.202.882a.294.294 0 0 1 .007 0 .294.294 0 0 1 .011 0 .294.294 0 0 1 0 .588.294.294 0 0 1-.018-.588zm-1.45.588a.294.294 0 0 1 0 .588.294.294 0 0 1 0-.588zm.881 0a.294.294 0 0 1 0 .588.294.294 0 0 1 0-.588z" fill="gray"/></svg>

<?xml version="1.0" encoding="UTF-8" standalone="no"?>
<svg
   xmlns:dc="http://purl.org/dc/elements/1.1/"
   xmlns:cc="http://creativecommons.org/ns#"
   xmlns:rdf="http://www.w3.org/1999/02/22-rdf-syntax-ns#"
   xmlns:svg="http://www.w3.org/2000/svg"
   xmlns="http://www.w3.org/2000/svg"
   xmlns:sodipodi="http://sodipodi.sourceforge.net/DTD/sodipodi-0.dtd"
   xmlns:inkscape="http://www.inkscape.org/namespaces/inkscape"
   width="24"
   height="24"
   viewBox="0 0 6.35 6.35"
   version="1.1"
   id="svg4"
   sodipodi:docname="applications-graphics-symbolic.svg"
   inkscape:version="0.92.4 (5da689c313, 2019-01-14)">
  <metadata
     id="metadata10">
    <rdf:RDF>
      <cc:Work
         rdf:about="">
        <dc:format>image/svg+xml</dc:format>
        <dc:type
           rdf:resource="http://purl.org/dc/dcmitype/StillImage" />
        <dc:title></dc:title>
      </cc:Work>
    </rdf:RDF>
  </metadata>
  <defs
     id="defs8" />
  <sodipodi:namedview
     pagecolor="#ffffff"
     bordercolor="#666666"
     borderopacity="1"
     objecttolerance="10"
     gridtolerance="10"
     guidetolerance="10"
     inkscape:pageopacity="0"
     inkscape:pageshadow="2"
     inkscape:window-width="1085"
     inkscape:window-height="480"
     id="namedview6"
     showgrid="false"
     inkscape:zoom="9.8333333"
     inkscape:cx="1.0677966"
     inkscape:cy="12"
     inkscape:window-x="0"
     inkscape:window-y="25"
     inkscape:window-maximized="0"
     inkscape:current-layer="svg4" />
  <path
     d="M 3.15,0.906 C 2.528,0.915 1.695,1.142 1.709,1.871 1.723,2.632 2.567,2.36 2.635,2.671 2.645,2.657 2.661,2.646 2.672,2.634 2.73,2.571 2.788,2.52 2.846,2.459 2.938,2.356 3.034,2.259 3.131,2.156 3.456,1.809 3.471,1.788 4.247,1.2 A 2.1,2.1 0 0 0 3.277,0.906 c -0.039,-0.002 -0.086,0 -0.128,0 z m 1.806,0 C 4.427,1.289 3.719,1.878 3.158,2.475 3.107,2.53 3.058,2.581 3.01,2.635 2.98,2.668 2.947,2.693 2.917,2.726 2.897,2.749 2.88,2.774 2.861,2.796 2.478,3.22 2.103,3.718 1.789,4.176 A 0.315,0.315 0 0 0 1.459,4.204 C 1.237,4.35 1.284,4.876 0.828,4.876 0.871,5.053 1.338,5.051 1.654,4.972 1.952,4.897 2.042,4.636 1.986,4.418 1.978,4.388 1.959,4.356 1.94,4.326 2.524,3.842 2.94,3.438 3.223,3.139 3.293,3.066 3.379,2.971 3.473,2.867 3.827,2.474 4.333,1.856 4.956,0.907 Z m -2.373,0.45 a 0.441,0.441 0 0 1 0.006,0 0.44,0.44 0 0 1 0.44,0.441 A 0.441,0.441 0 1 1 2.583,1.356 Z M 4.728,1.551 C 4.31,2.208 4.031,2.597 3.736,2.901 3.548,3.094 3.394,3.287 3.259,3.424 3.012,3.687 2.689,3.996 2.332,4.334 2.351,4.767 2.571,5.142 3.287,5.281 4.433,5.503 5.648,4.744 5.526,3.204 5.473,2.543 5.112,1.944 4.728,1.551 Z m 0.1,1.12 a 0.294,0.294 0 0 1 0,0.588 0.2945,0.2945 0 0 1 0,-0.589 z M 4.626,3.553 a 0.294,0.294 0 0 1 0.007,0 0.294,0.294 0 0 1 0.011,0 0.294,0.294 0 0 1 0,0.588 0.29413772,0.29413772 0 0 1 -0.018,-0.588 z m -1.45,0.588 a 0.294,0.294 0 0 1 0,0.588 0.294,0.294 0 0 1 0,-0.588 z m 0.881,0 a 0.294,0.294 0 0 1 0,0.588 0.294,0.294 0 0 1 0,-0.588 z"
     id="path2"
     inkscape:connector-curvature="0"
     style="fill:#808080" />
</svg>
